X: 821
M: C
L: 1/8
K: Flyd	% or Gmix
V: 1
f |\
cF F/F/F cFAf | cF F/F/F c2Ad |\
c |\
(e/f/g) df (e/f/g) df |\
(e/f/g) df Te2d |]
V: 2 clef=bass middle=d
z |\
f2f2 f2f2 | f2f2 f2f2 |\
g2g2 g2g2 | g2g2 g2g :|\
z |\
f2f2 f2f2 |
f2f2 f2f2 |\
g2g2 g2g2 | g2g2 g2g2 |\
f2f2 f2f2 | f2f2 f2f2 |\
g2g2 g2g2 | g2g2 g2g |]

